X: 293
M: C
L: 1/8
K: G
|:\
g2g>a b>ba>g | d2d>d d2e2 | f>ef>g f2Te2 | d2d>d d3z :|
|:\
g2g>a bc'ba | g2g>g g2d>c | B>AB>c B2TA2 | G2G>G G3z :|

